static/img/react-native-32.svg

<?xml version="1.0" encoding="UTF-8"?>
<svg xmlns="http://www.w3.org/2000/svg" xmlns:xlink="http://www.w3.org/1999/xlink" width="32px" height="32px" viewBox="0 0 32 32" version="1.1">
<g id="surface1">
<path style=" stroke:none;fill-rule:nonzero;fill:rgb(50.196078%,87.058824%,91.764706%);fill-opacity:1;" d="M 16 22.667969 C 7.398438 22.667969 0.667969 19.734375 0.667969 16 C 0.667969 12.265625 7.398438 9.332031 16 9.332031 C 24.601562 9.332031 31.332031 12.265625 31.332031 16 C 31.332031 19.734375 24.601562 22.667969 16 22.667969 Z M 16 10.667969 C 7.601562 10.667969 2 13.398438 2 16 C 2 18.601562 7.601562 21.332031 16 21.332031 C 24.398438 21.332031 30 18.601562 30 16 C 30 13.398438 24.398438 10.667969 16 10.667969 Z M 16 10.667969 "/>
<path style=" stroke:none;fill-rule:nonzero;fill:rgb(50.196078%,87.058824%,91.764706%);fill-opacity:1;" d="M 10.066406 29.734375 C 9.398438 29.734375 8.867188 29.601562 8.332031 29.265625 C 5.066406 27.398438 5.933594 20.132812 10.199219 12.667969 C 12.199219 9.199219 14.667969 6.265625 17.066406 4.398438 C 19.667969 2.398438 22 1.800781 23.601562 2.734375 C 25.265625 3.667969 25.867188 6 25.464844 9.265625 C 25.066406 12.332031 23.734375 15.933594 21.734375 19.398438 C 19.734375 22.867188 17.265625 25.800781 14.867188 27.667969 C 13.132812 29 11.464844 29.734375 10.066406 29.734375 Z M 21.933594 3.601562 C 20.867188 3.601562 19.464844 4.199219 17.933594 5.398438 C 15.667969 7.199219 13.332031 10 11.398438 13.332031 C 7.199219 20.601562 6.800781 26.867188 9 28.132812 C 10.132812 28.800781 12 28.199219 14.066406 26.601562 C 16.332031 24.800781 18.667969 22 20.601562 18.667969 C 22.535156 15.332031 23.800781 11.933594 24.199219 9.066406 C 24.535156 6.398438 24.132812 4.535156 23 3.867188 C 22.667969 3.734375 22.332031 3.601562 21.933594 3.601562 Z M 21.933594 3.601562 "/>
<path style=" stroke:none;fill-rule:nonzero;fill:rgb(50.196078%,87.058824%,91.764706%);fill-opacity:1;" d="M 22 29.734375 C 18.667969 29.734375 13.867188 25.667969 10.265625 19.332031 C 5.933594 11.867188 5.066406 4.601562 8.332031 2.734375 C 11.601562 0.867188 17.464844 5.199219 21.800781 12.667969 C 23.800781 16.132812 25.132812 19.734375 25.535156 22.800781 C 26 26.066406 25.332031 28.332031 23.667969 29.332031 C 23.132812 29.601562 22.601562 29.734375 22 29.734375 Z M 9 3.867188 C 6.800781 5.132812 7.199219 11.398438 11.398438 18.667969 C 15.601562 25.933594 20.800781 29.398438 23 28.132812 C 24.132812 27.464844 24.535156 25.601562 24.199219 22.933594 C 23.800781 20.066406 22.535156 16.667969 20.601562 13.332031 C 16.398438 6.066406 11.199219 2.601562 9 3.867188 Z M 9 3.867188 "/>
<path style=" stroke:none;fill-rule:nonzero;fill:rgb(50.196078%,87.058824%,91.764706%);fill-opacity:1;" d="M 18.667969 16 C 18.667969 17.472656 17.472656 18.667969 16 18.667969 C 14.527344 18.667969 13.332031 17.472656 13.332031 16 C 13.332031 14.527344 14.527344 13.332031 16 13.332031 C 17.472656 13.332031 18.667969 14.527344 18.667969 16 Z M 18.667969 16 "/>
</g>
</svg>

<svg xmlns="http://www.w3.org/2000/svg" width="32" height="32"><path d="M16 22.668C7.398 22.668.668 19.734.668 16S7.398 9.332 16 9.332 31.332 12.266 31.332 16 24.602 22.668 16 22.668m0-12c-8.398 0-14 2.73-14 5.332s5.602 5.332 14 5.332S30 18.602 30 16s-5.602-5.332-14-5.332m0 0" style="stroke:none;fill-rule:nonzero;fill:#80deea;fill-opacity:1"/><path d="M10.066 29.734c-.668 0-1.199-.132-1.734-.468-3.266-1.868-2.398-9.133 1.867-16.598 2-3.469 4.469-6.402 6.867-8.27 2.602-2 4.934-2.597 6.536-1.664 1.664.934 2.265 3.266 1.863 6.532-.399 3.066-1.73 6.668-3.73 10.132-2 3.47-4.47 6.403-6.868 8.27-1.734 1.332-3.402 2.066-4.8 2.066M21.934 3.602c-1.067 0-2.47.597-4 1.796C15.668 7.2 13.332 10 11.398 13.332 7.2 20.602 6.801 26.867 9 28.132c1.133.669 3 .067 5.066-1.53 2.266-1.801 4.602-4.602 6.536-7.934 1.933-3.336 3.199-6.734 3.597-9.602.336-2.668-.066-4.53-1.199-5.199-.332-.133-.668-.265-1.066-.265m0 0" style="stroke:none;fill-rule:nonzero;fill:#80deea;fill-opacity:1"/><path d="M22 29.734c-3.332 0-8.133-4.066-11.734-10.402-4.332-7.465-5.2-14.73-1.934-16.598 3.27-1.867 9.133 2.465 13.469 9.934 2 3.465 3.332 7.066 3.734 10.133.465 3.265-.203 5.531-1.867 6.531a3.6 3.6 0 0 1-1.668.402M9 3.867c-2.2 1.266-1.8 7.531 2.398 14.801 4.204 7.266 9.403 10.73 11.602 9.465 1.133-.668 1.535-2.531 1.2-5.2-.4-2.867-1.665-6.265-3.598-9.601C16.398 6.066 11.199 2.602 9 3.867m0 0" style="stroke:none;fill-rule:nonzero;fill:#80deea;fill-opacity:1"/><path d="M18.668 16a2.669 2.669 0 0 1-5.336 0 2.669 2.669 0 0 1 5.336 0m0 0" style="stroke:none;fill-rule:nonzero;fill:#80deea;fill-opacity:1"/></svg>
